X:1
T:Annen-Polka
T:Johann Strauss.
T:von
T:177tes Werk.
T:ANNEN - POLKA
T:ANNEN - POLKA
T:Public Domain
T:Public Domain
T:Public Domain
C:Johann Strauss II
Z:Public Domain
%%score { 1 | 2 }
L:1/8
M:2/4
K:D
V:1 treble nm="Klavier"
V:2 bass 
V:1
 !>![Aa] z!pp!{/b} .a z | z{/a} .g z{/g} .f | z2{/e} b z | z2{/c} a z |:!p! (f/a/).e (e/a/).d | %5
 (d/a/).c .c.e | (g/a/).f (f/a/).e | (e/a/).d .d.f |!<(!{/a} .[ee'].[dd']!<)!!>(! .f.a!>)! | %9
!<(!!<(!{/b} .[ee'].[dd'] .g.b!<)!!<)! |1!>(!{/b} .d'.c'{/a}.c'.b!>)! |{/f} .b.a !>!a2 :|2 %12
{/b} .d'.c'.b.c | [FAd][Adf][FAd] z |:[K:A]!f!{/c} .e.c'{/c}.e.b |{/c} .e.a{/b} (a/g/a/b/) | %16
{/B} dg{/B}df |{/B} de{/f} (e/^d/e/f/) |{/c} .e.c'{/c}.e.b |{/c} .e.a{/b} (a/g/a/b/) | %20
{/B} .d.g (g/f/d/B/) | [CEA][CEA][CEA] z :|!f! !trill(!Ta4- | a4- | !trill)!a!pp! .A.^G.A | %25
 .B.c.d.e |:[K:D]!p! (f/a/).e (e/a/).d | (d/a/).c .c.e | (g/a/).f (f/a/).e | (e/a/).d .d.f | %30
!<(!{/a} .[ee'].[dd']!<)!!>(! .f.a!>)! |!<(!!<(!{/b} .[ee'].[dd'] .g.b!<)!!<)! |1 %32
!>(!{/b} .d'.c'{/a}.c'.b!>)! |{/f} .b.a !>!a2 :|2{/b} .d'.c'.b.c | [FAd][Adf][FAd] z |] %36
[K:G][M:2/4]!p! bb!<(! Tb2({^ab)}!<)! | .e'.e Te2({^de)} | .b.a Tc2({Bc)} | .e._e d2 | %40
{/d} bb!<(! Tb2({^ab)}!<)! | .e'.e Te2({^de)} |!f! .g.f !>!Tf2({^ef)} | .b.B B2 :: %44
!pp! [Ac].[ca]/.[ca]/ .[ca].[ca]/.[^c^a]/ |"_cresc." .[db].[ge']/.[ge']/ .[ge'].[ge']/.[^e^c']/ | %46
 .[fd'].[=e=c']/.[ec']/ .[ec'].[db]/.[^c^a]/ | .[db].[Bg]/.[Bg]/ .[Bd].[GB]/.[GB]/ | %48
 [Ac].[ca]/.[ca]/ .[ca].[ca]/.[^c^a]/ | .[db].[ge']/.[ge']/ .[ge'].[ge']/.[^e^c']/ | %50
!ff! .[fd'].[=e=c']/.[ec']/ .[ec'].[ca]/.[db]/ | [Bdg][Bdg][Bdg] z :| %52
[K:D][M:2/4] !>![Aa] z!pp!{/b} .a z | z{/a} .g z{/g} .f | z2{/e} b z | z2{/c} a z |: %56
!p! (f/a/).e (e/a/).d | (d/a/).c .c.e | (g/a/).f (f/a/).e | (e/a/).d .d.f | %60
!<(!{/a} .[ee'].[dd']!<)!!>(! .f.a!>)! |!<(!!<(!{/b} .[ee'].[dd'] .g.b!<)!!<)! |1 %62
!>(!{/b} .d'.c'{/a}.c'.b!>)! |{/f} .b.a !>!a2 :|2{/b} .d'.c'.b.c | [FAd][Adf][FAd] z |: %66
[K:A]!f!{/c} .e.c'{/c}.e.b |{/c} .e.a{/b} (a/g/a/b/) |{/B} dg{/B}df |{/B} de{/f} (e/^d/e/f/) | %70
{/c} .e.c'{/c}.e.b |{/c} .e.a{/b} (a/g/a/b/) |{/B} .d.g (g/f/d/B/) | [CEA][CEA][CEA] z :| %74
!f! !trill(!Ta4- | a4- | !trill)!a!pp! .A.^G.A | .B.c.d.e |:[K:D]!p! (f/a/).e (e/a/).d | %79
 (d/a/).c .c.e | (g/a/).f (f/a/).e | (e/a/).d .d.f |!<(!{/a} .[ee'].[dd']!<)!!>(! .f.a!>)! | %83
!<(!!<(!{/b} .[ee'].[dd'] .g.b!<)!!<)! |1!>(!{/b} .d'.c'{/a}.c'.b!>)! |{/f} .b.a !>!a2 :|2 %86
{/b} .d'.c'.b.c | [FAd][Adf][FAd] z ||!f! [dfad']2 [Bdf]2 | [Ada]2 [GBd]2 | [Adf]4 | [GAce]4 | %92
 [FAd]/D/[FAd]/D/ [FAd]/D/[FAd]/D/ | [FAd]/D/[FAd]/D/ [FAd]/D/[FAd]/D/ | [DFAd] z z2 | %95
 [A,DF] z z2 | !>!!fermata![F,A,D]4 |] %97
V:2
 [A,,A,] z[K:treble] .[ce] z | .[Bd] z .[Ac] z | .[GB] z z2 | [A,CEG] z z2 |: %4
[K:bass] D,[F,A,D]F,[A,D] | E,[G,A,C][G,A,C][G,A,C] | C,[G,A,E]A,,[G,A,C] | %7
 D,[F,A,D][F,A,D][F,A,D] | F,[=CDA]D,[CDA] | G,[B,DG][B,DG][B,DG] |1 A,[^CEG] A,,[A,CEG] | %11
 D,[A,DF][A,DF][A,DF] :|2 A,[CEG] A,,[G,A,E] | [D,F,A,D][D,F,A,D][D,F,A,D] z |: %14
[K:A] A,,[E,A,CE]A,,[E,A,CE] | A,,[E,A,CE][E,A,CE][E,A,CE] | E,[G,B,DE]E,[G,B,DE] | %17
 E,[G,B,DE][G,B,DE][G,B,DE] | A,,[E,A,CE]A,,[E,A,CE] | A,,[E,A,CE][E,A,CE][E,A,CE] | %20
 E,[G,B,D]E,[G,B,D] | [A,,C,E,A,][A,,C,E,A,][A,,C,E,A,] z :| z2[K:treble] [CEA]2 | %23
 [D=F_B]2 [^D^F=B]2 | [E=Gc] z z2 | z4 |:[K:D][K:bass] D,[F,A,D]F,[A,D] | E,[G,A,C][G,A,C][G,A,C] | %28
 C,[G,A,E]A,,[G,A,C] | D,[F,A,D][F,A,D][F,A,D] | F,[=CDA]D,[CDA] | G,[B,DG][B,DG][B,DG] |1 %32
 A,[^CEG] A,,[A,CEG] | D,[A,DF][A,DF][A,DF] :|2 A,[CEG] A,,[G,A,E] | %35
 [D,F,A,D][D,F,A,D][D,F,A,D] z |][K:G][M:2/4] G,[B,DG]G,[B,^DG] | C,[CEA][CEA][CEA] | %38
 D,[CDF]D,[CDF] | G,[B,DG][B,DG][B,DG] | G,[B,DG]G,[B,^DG] | C,[G,CE][G,CE][G,CE] | %42
 ^C,[E,F,^A,] !>![C,E,F,A,]2 |!f! [B,,^D,F,B,] z z2 :: C,[E,A,C]C,[E,A,C] | D,[G,B,D]D,[G,B,D] | %46
 D,[F,A,CD]D,[F,A,CD] | G,[B,D]G,[B,D] | C,[E,A,C]C,[E,A,C] | D,[G,B,D]D,[G,B,D] | %50
 D,[F,A,CD]D,[F,A,CD] | [G,B,D][G,B,D][G,B,D] z :|[K:D][M:2/4] !>![A,,A,] z[K:treble] .[ce] z | %53
 .[Bd] z .[Ac] z | .[GB] z z2 | [A,CEG] z z2 |:[K:bass] D,[F,A,D]F,[A,D] | %57
 E,[G,A,C][G,A,C][G,A,C] | C,[G,A,E]A,,[G,A,C] | D,[F,A,D][F,A,D][F,A,D] | F,[=CDA]D,[CDA] | %61
 G,[B,DG][B,DG][B,DG] |1 A,[^CEG] A,,[A,CEG] | D,[A,DF][A,DF][A,DF] :|2 A,[CEG] A,,[G,A,E] | %65
 [D,F,A,D][D,F,A,D][D,F,A,D] z |:[K:A] A,,[E,A,CE]A,,[E,A,CE] | A,,[E,A,CE][E,A,CE][E,A,CE] | %68
 E,[G,B,DE]E,[G,B,DE] | E,[G,B,DE][G,B,DE][G,B,DE] | A,,[E,A,CE]A,,[E,A,CE] | %71
 A,,[E,A,CE][E,A,CE][E,A,CE] | E,[G,B,D]E,[G,B,D] | [A,,C,E,A,][A,,C,E,A,][A,,C,E,A,] z :| %74
 z2[K:treble] [CEA]2 | [D=F_B]2 [^D^F=B]2 | [E=Gc] z z2 | z4 |:[K:D][K:bass] D,[F,A,D]F,[A,D] | %79
 E,[G,A,C][G,A,C][G,A,C] | C,[G,A,E]A,,[G,A,C] | D,[F,A,D][F,A,D][F,A,D] | F,[=CDA]D,[CDA] | %83
 G,[B,DG][B,DG][B,DG] |1 A,[^CEG] A,,[A,CEG] | D,[A,DF][A,DF][A,DF] :|2 A,[CEG] A,,[G,A,E] | %87
 [D,F,A,D][D,F,A,D][D,F,A,D] z || [D,,D,]2 [B,,,B,,]2 | [F,,,F,,]2 [B,,,B,,]2 | [A,,,A,,]4 | %91
 [A,,,A,,]4 | [D,,D,][D,D][C,C][B,,B,] | [A,,A,][G,,G,][F,,F,][E,,E,] | [D,,D,] z z2 | %95
 [D,,D,] z z2 | D,/D,,/D,/D,,/ !fermata![D,,D,]2 |] %97

